X:1
T:Sej, a tari réten
C:Hungarian folk song
Z:Public Domain
L:1/4
M:4/4
K:C
V:1 treble nm="Voice"
%%MIDI program 52
V:1
 G F E C | D2 D z | d c B G | A2 A z | A B c d | d/d/A/A/ G c | F/ F3/2 E C | D2 D z |] %8
w: Sej a ta- ri|ré- ten|pi- ros bar- na|kis- lány,|Ar- ra megy egy|pi- ros bar- na le- gény,|le- ve- szi ka-|lap- ját.|

